X: 20063
T: BLACK EYED SUSAN
C:
%R: waltz
B: Elias Howe "The Musician's Companion" 1843 p.6 #3
S: http://imslp.org/wiki/The_Musician's_Companion_(Howe,_Elias)
Z: 2015 John Chambers <jc:trillian.mit.edu>
M: 3/4
L: 1/8
K: Dm
% - - - - - - - - - - - - - - - - - - - - - - - - -
[|\
A2 d2 e2 | (f2 e2) d2 |\
(d2 ^cd) e2 | A6 |\
B2 A2 G2 | F2 E2 D2 |\
F>G A2 G2 | A6 |\
A2 d2 e2 | (f2 e2) d2 |\
(f>g) a2 ^g2 | a6 |\
a2 g2 f2 | c4 f2 |
(g2 f2) e2 | f6 |\
a2 g2 f2 | (g2 f2) e2 |\
(f2 e2) d2 | ^c2 d2 e2 |\
A6 | F2 A2 =B2 |\
(c2 =B2) A2 | A2 d2 e2 |\
(f2 e2) a2 | A4 d2 |\
e2 d2 ^c2 | d6 |]
% - - - - - - - - - - - - - - - - - - - - - - - - -

%%sep 1 1 500

